X:778
%%etbk:tnset id:516,pos:1,rep:3x,ant:
%%etbk:color #e6ffe6
%%etbk:pldat 2016-09-17T14:27,2016-09-13T17:01,2016-09-10T15:06,2016-09-03T10:15,2016-08-21T11:39,2016-08-12T17:14,2016-08-04T18:29,2016-07-31T16:59,2016-07-29T16:17,2016-07-24T17:22,2016-07-23T15:55,2016-07-21T18:20,2016-07-19T20:14,2016-07-18T19:29
T: Gorman's (D)
N: http://www.thesession.org/discussions/display/28476/
Z: Piano Box Version by Martin Fleischmann
H: Created 2016-07-18 /  Last Modified 2016-08-21
M: 4/4
L: 1/8
R: Reel
K:Dmix
G|:"D"!3!ADDD A2 !5!d!4!B|"A"!5!c!3!AGE E{B}E GB|"D"ADDD A2 dB|"A"cAGE "D"ED D2:|
G| "D"!2!A!4!ddd !4!dc!1!A!2!B | "C"!3!c!1!d!2!e!3!f !5!g2!3!d!2!c | "D"!1!A!4!ddd !4!dc!1!A!3!B | "A"!4!c!2!A!1!G!2!E "D"!2!E!1!DD2 |
"D"!2!A!4!dd!3!c !4!dc!1!A!2!B | "C"!3!c!1!d!2!e!3!f !4!g2!5!a!4!g | "D"!3!f!5!a!2!e!1!c !3!d!5!f!4!e!3!d | "A"!2!^c!1!A!4!G!2!E "D"!2!E!1!DD2 |


